X:1
T:Title
%%score { 1 | 2 }
L:1/8
M:4/4
K:Eb
V:1 treble nm="Grand Piano"
V:2 bass 
V:1
 z4 z2[Q:1/4=92] [GB]>[FA] | G>G GG GG[GB][EG] | [DF]>[B,E] [EG][DF] E2 E>D | %3
 C>[B,D] [CE][CF] [CG][CA][CB][CEc] | [DF]6 [DB]>[DA] | G>G GG [GB]2 G>F | E>E EE G2 E>D | %7
 C>[B,D] [CE][EG] [DF][B,E] [EG]>[DF] |[M:3/4] E6 |[M:1/4] E>F |[M:4/4] G>G GG GFG[FA] | %11
 [GB]6 [GB]>[GB] | c>c cc cBc[Bd] | [ce]6 [Bd][Ac] | [GB]>[Ac] [GB][EG] [GB]2 [Ac][Ad] | %15
 [Ge]>[Ac] [GB][EG] [DF]2 [DB]>[DA] | [B,EG]>[B,EG] [EGB][B,EG] [A,DF][G,B,E] [B,EG]>[A,DF] | %17
[M:3/4] [G,E]6 |] %18
V:2
 z4 z2 [E,B,]>[E,B,] | [E,B,E]>[E,B,E] [E,B,E][E,B,E] [E,B,E][E,B,E][E,B,][E,B,] | %2
 [B,,A,]>[B,,G,] [B,,B,][B,,A,] [E,G,]2 [E,G,B,]>[E,G,B,] | %3
 [A,,A,]>[A,,A,] [A,,A,][A,,A,] [A,,A,][A,,A,][A,,E,]A,, | [B,,B,]6 [B,,B,]>[B,,B,] | %5
 [E,B,E]>[E,B,E] [E,B,E][E,B,E] [E,B,]2 [E,B,E]>[E,A,D] | %6
 [E,G,]>[E,G,] [E,G,][E,G,] [E,B,E]2 [E,G,B,]>[E,G,B,] | %7
 [A,,A,]>[A,,A,] [A,,A,][A,,A,] [B,,A,][B,,G,] [B,,B,]>[B,,A,] |[M:3/4] [E,G,]6 | %9
[M:1/4] [E,G,B,]>[E,A,B,] |[M:4/4] [E,B,E]>[E,B,E] [E,B,E][E,B,E] [E,B,E][E,B,D][E,B,E][E,B,] | %11
 [E,B,]6 [E,E]>[E,E] | [A,EA]>[A,EA] [A,EA][A,EA] [A,EA][A,EG][A,EA][K:bass][A,E] | %13
 [A,E]6 [A,E][A,E] | [E,E]>[E,E] [E,E][E,B,] [E,E]2 [E,E][E,E] | %15
 [E,E]>[E,E] [E,E][E,B,] [B,,B,]2 [B,,B,]>[B,,B,] | E,>E, E,E, B,,B,, B,,>B,, |[M:3/4] E,6 |] %18

